X: 1
T: The Holy Land
M: 4/4
L: 1/8
K: Dmaj
A|"G"!roll!B3 d"A"A2 Bc|"D"dF !roll!F2 DFA=c|"G"BG !roll!G2 ABdf|"A7"afeg "D"fd d2:|]
e|"D"f2 df dfaf|"Em"gfed "A7"cdeg|"D"f2df dfaf|"A7"gfeg "D"fd d2|
"D"f2df dfaf|"Em"gfed "A"cdef|"D"dfaf "G"g2 ag|"A7" f2 eg"D"fd d2|]



